X: 171
T: Lenox Love to Blantyre
R: reel
B: Robert Bremner "A Collection of Scots Reels or Country Dances" p.17 #1
S: http://imslp.org/wiki/A_Collection_of_Scots_Reels_or_Country_Dances_(Bremner,_Robert)
Z: 2013 John Chambers <jc:trillian.mit.edu>
M: C|
L: 1/8
K: F
% - - - - - - - - - - - - - - - - - - - - - - - - -
V: 1
C |\
F/F/F F>G TA>GFA | G/G/G GA d>cdf |\
F/F/F FG TA>GFA | GAFC D/D/D D :|\
|: f |
cdfg agfa | gfga g>fdf |\
[1 cdfg agfa | gfba Tg2f :|\
[2 c/c/c af gfba | gfba Tg2f |]
% - - - - - - - - - - - - - - - - - - - - - - - - -
V: 2 clef=bass middle=d
z |\
f2f2 f2f2 | g2g2 g2g2 |\
f2f2 f2f2 | c2f2 d2d :|\
|: z |
f2f2 f2f2 | g2g2 g2g2 |\
[1 f2f2 f2f2 | c2c2 c2f :|\
[2 f2f2 f2f2 | c2c2 c2f |]
% - - - - - - - - - - - - - - - - - - - - - - - - -

%%sep 1 1 500
%%sep 1 1 500
